src/assest/images/logos/cat.svg

<svg preserveAspectRatio="none" viewBox="0 0 64 64" fill="none" xmlns="http://www.w3.org/2000/svg">
<g clip-path="url(#clip0_1_788)">
<rect width="64" height="64" rx="32" fill="#F4FAFF"/>
<ellipse cx="27.7515" cy="28.8849" rx="14.3212" ry="13.0265" fill="white"/>
<ellipse cx="2.74168" cy="2.8311" rx="2.74168" ry="2.8311" transform="matrix(0.995475 0.0950258 -0.0890687 0.996026 19.1423 19.9646)" fill="black"/>
<ellipse cx="33.9127" cy="28.8851" rx="2.94051" ry="2.97345" fill="black"/>
<path fill-rule="evenodd" clip-rule="evenodd" d="M26.6532 12.4162C26.6532 12.4162 20.8165 3.98349 18.9847 5.04888C18.6017 5.29624 18.4111 6.72194 18.1312 8.81465C17.6665 12.2891 16.9559 17.6022 14.7112 22.414C14.487 22.8946 14.2606 23.3782 14.0329 23.8647L14.0324 23.8659C13.8835 24.1839 13.7323 24.5066 13.5791 24.8335C10.0281 32.4092 5.4099 42.2616 4.59095 49.9116C2.99547 64.8153 8.75432 76.1433 14.9548 88.3401C15.4795 89.3722 16.0073 90.4105 16.5341 91.4577C17.2928 92.9659 19.0574 93.8762 20.7025 93.8762H21.2924C23.4368 93.8762 22.262 91.0884 21.887 90.1987L21.8868 90.1982C21.8466 90.1028 21.8157 90.0294 21.799 89.9835C20.2241 85.6521 19.7879 81.9574 19.2803 77.6577C19.152 76.571 19.0192 75.4456 18.8622 74.2615C19.6013 75.1406 20.3841 75.981 21.2078 76.7788C22.2989 81.9285 23.8598 86.9285 25.6915 91.7206C26.1924 93.0311 27.4268 93.8761 28.7905 93.8761L29.4668 93.8761C30.7001 93.8761 31.5788 92.6374 31.2608 91.4063C30.5264 88.5631 30.0012 85.6606 29.6556 82.7101C32.8472 84.2625 36.3371 85.3059 40.0392 85.729C53.3113 87.2457 65.6094 80.3665 71.9691 69.1992C72.1254 68.9366 72.2736 68.668 72.4135 68.3937L72.4451 68.3345C72.4778 68.2729 72.507 68.2128 72.5328 68.1541C73.2365 66.7065 73.7075 65.1074 73.89 63.403C74.0159 62.2269 73.9971 61.0687 73.8483 59.9474C73.4851 57.2092 81.4115 52.388 89.1152 47.7023C98.8994 41.751 108.324 36.0183 99.9499 35.0495C98.7655 34.9125 97.5818 34.7545 96.3979 34.5965C88.3505 33.5225 80.296 32.4476 71.9691 37.947C71.1709 39.653 70.3783 41.146 69.5975 42.4526C69.2202 49.1007 63.8825 54.3717 57.3533 54.3717C50.5792 54.3717 45.0877 48.698 45.0877 41.6992C45.0877 39.4508 45.6544 37.3393 46.6483 35.5086C47.9474 32.1833 49.8779 28.6379 51.5219 25.6186C53.5586 21.878 55.1557 18.9449 54.5677 18.2383C53.3229 16.7424 47.8288 17.7973 44.3809 18.4593L44.3808 18.4593C43.7439 18.5816 43.1768 18.6905 42.7192 18.7674C40.1101 15.2227 36.1537 12.7467 31.5314 12.2185C29.8608 12.0276 28.2214 12.1046 26.6532 12.4162ZM20.1407 28.2294C22.7714 29.4298 25.6845 28.5768 26.6473 26.3242C27.6101 24.0717 26.2581 21.2726 23.6275 20.0723C22.0441 19.3498 20.3584 19.3712 19.0573 19.9939C18.1966 20.4058 17.5042 21.0807 17.1209 21.9775C16.1581 24.23 17.5101 27.0291 20.1407 28.2294ZM39.4639 32.4003C38.4445 34.7683 35.3914 35.6645 32.6445 34.4022C29.8976 33.1399 28.4973 30.1969 29.5167 27.829C29.9225 26.8863 30.6507 26.1769 31.5535 25.744C32.9185 25.0896 34.6828 25.0674 36.3361 25.8271C39.083 27.0895 40.4833 30.0324 39.4639 32.4003Z" fill="#72BDF8"/>
<path fill-rule="evenodd" clip-rule="evenodd" d="M23.9988 30.6597L23.9483 31.2947C23.9988 30.6597 23.999 30.6597 23.9991 30.6597L23.9998 30.6597L24.001 30.6598L24.0041 30.6601L24.0132 30.661L24.0421 30.664C24.0661 30.6666 24.0993 30.6705 24.1406 30.6761C24.2232 30.6874 24.3389 30.7055 24.4784 30.7336C24.7558 30.7896 25.1357 30.8868 25.5415 31.0528C25.956 31.2224 26.3387 31.4544 26.6104 31.6367C26.7481 31.7291 26.8617 31.8117 26.9416 31.8719C26.9817 31.902 27.0135 31.9267 27.036 31.9444L27.0626 31.9654L27.0703 31.9717L27.0728 31.9737L27.0737 31.9744L27.0742 31.9748C27.0742 31.9748 27.0743 31.9749 26.7148 32.4453L27.0743 31.9749C27.3416 32.1929 27.3873 32.5936 27.1762 32.8698C26.9653 33.1458 26.5778 33.1931 26.3105 32.9755L26.3102 32.9752L26.31 32.9751L26.3067 32.9724L26.2893 32.9586C26.2731 32.9459 26.2481 32.9265 26.2155 32.902C26.1501 32.8528 26.0548 32.7834 25.9386 32.7054C25.8604 32.653 25.7747 32.5979 25.6838 32.5431C25.4136 33.1206 25.3909 33.5302 25.4465 33.7917C25.507 34.0757 25.6759 34.2674 25.8979 34.3771C26.1317 34.4926 26.4114 34.5083 26.6412 34.4275C26.8567 34.3517 27.0201 34.1973 27.091 33.9464C27.1863 33.6086 27.5287 33.4146 27.8557 33.5131C28.1826 33.6116 28.3704 33.9654 28.275 34.3032C28.0802 34.9933 27.5944 35.4383 27.0388 35.6338C26.4976 35.8242 25.8845 35.783 25.3658 35.5267C24.8865 35.2899 24.4782 34.863 24.2933 34.2635C23.9381 34.4494 23.5609 34.5094 23.1979 34.4631C22.6833 34.3976 22.2284 34.1233 21.9151 33.7597C21.605 33.3999 21.3866 32.8929 21.4624 32.3462C21.5107 31.9979 21.8232 31.7559 22.1603 31.8058C22.4975 31.8558 22.7316 32.1786 22.6833 32.5269C22.6718 32.6099 22.7008 32.755 22.8363 32.9124C22.9687 33.066 23.1578 33.174 23.3489 33.1984C23.5226 33.2205 23.7274 33.1788 23.9414 32.9774C24.1171 32.8121 24.3147 32.5226 24.4811 32.0389C24.3948 32.0169 24.3144 31.9989 24.2421 31.9844C24.1304 31.9618 24.0401 31.9478 23.9795 31.9395C23.9492 31.9354 23.9266 31.9328 23.9125 31.9312L23.8982 31.9298L23.8962 31.9296C23.5575 31.9 23.3057 31.5926 23.3336 31.2424C23.3616 30.8917 23.6594 30.6308 23.9988 30.6597Z" fill="black"/>
</g>
<defs>
<clipPath id="clip0_1_788">
<rect width="64" height="64" rx="32" fill="white"/>
</clipPath>
</defs>
</svg>

<svg xmlns="http://www.w3.org/2000/svg" fill="none"><g clip-path="url(#a)"><rect width="64" height="64" fill="#F4FAFF" rx="32"/><ellipse cx="27.75" cy="28.88" fill="#fff" rx="14.32" ry="13.03"/><ellipse cx="2.74" cy="2.83" fill="#000" rx="2.74" ry="2.83" transform="rotate(5.45 -200.05 210.97) skewX(.34)"/><ellipse cx="33.91" cy="28.89" fill="#000" rx="2.94" ry="2.97"/><path fill="#72BDF8" fill-rule="evenodd" d="M26.65 12.42s-5.83-8.44-7.67-7.37c-.38.25-.57 1.67-.85 3.76-.46 3.48-1.17 8.8-3.42 13.6l-.68 1.45-.45.97c-3.55 7.58-8.17 17.43-8.99 25.08C3 64.81 8.75 76.14 14.95 88.34a822.4 822.4 0 0 1 1.58 3.12 4.75 4.75 0 0 0 4.17 2.42h.6c2.14 0 .96-2.8.59-3.68l-.1-.22c-1.57-4.33-2-8.02-2.51-12.32-.13-1.09-.26-2.21-.42-3.4.74.88 1.52 1.72 2.35 2.52 1.09 5.15 2.65 10.15 4.48 14.94a3.32 3.32 0 0 0 3.1 2.16h.68c1.23 0 2.1-1.24 1.8-2.47a64.93 64.93 0 0 1-1.61-8.7 32 32 0 0 0 10.38 3.02C53.3 87.25 65.6 80.37 71.97 69.2c.16-.26.3-.53.44-.8l.04-.07.08-.18a14.34 14.34 0 0 0 1.32-8.2c-.36-2.74 7.56-7.56 15.27-12.25 9.78-5.95 19.2-11.68 10.83-12.65l-3.55-.45c-8.05-1.08-16.1-2.15-24.43 3.35-.8 1.7-1.6 3.2-2.37 4.5-.38 6.65-5.72 11.92-12.25 11.92-6.77 0-12.26-5.67-12.26-12.67 0-2.25.56-4.36 1.56-6.2a91.23 91.23 0 0 1 4.87-9.88c2.04-3.74 3.64-6.68 3.05-7.38-1.25-1.5-6.74-.44-10.19.22-.64.12-1.2.23-1.66.3a16.15 16.15 0 0 0-11.19-6.54c-1.67-.2-3.3-.12-4.88.2Zm-6.5 15.8c2.62 1.21 5.53.36 6.5-1.9.96-2.25-.4-5.05-3.02-6.25a5.44 5.44 0 0 0-4.57-.08 3.9 3.9 0 0 0-1.94 1.99c-.96 2.25.39 5.05 3.02 6.25Zm19.31 4.18c-1.02 2.37-4.07 3.26-6.82 2-2.74-1.26-4.14-4.2-3.12-6.57a4.11 4.11 0 0 1 2.03-2.09 5.67 5.67 0 0 1 4.79.09c2.74 1.26 4.14 4.2 3.12 6.57Z" clip-rule="evenodd"/><path fill="#000" fill-rule="evenodd" d="m24 30.66-.05.63.05-.63h.04a3.76 3.76 0 0 1 .44.07 5.95 5.95 0 0 1 2.56 1.21l.02.03h.01l-.36.48.36-.48c.27.22.32.62.1.9a.6.6 0 0 1-.86.1l-.02-.01a4.14 4.14 0 0 0-.6-.42c-.28.58-.3.99-.24 1.25.06.29.23.48.45.59.23.11.51.13.74.05a.68.68 0 0 0 .45-.48c.1-.34.44-.54.77-.44.32.1.51.46.42.8-.2.68-.69 1.13-1.24 1.32-.54.2-1.16.15-1.67-.1a2.08 2.08 0 0 1-1.08-1.27c-.35.19-.73.25-1.1.2a2.06 2.06 0 0 1-1.27-.7 1.8 1.8 0 0 1-.46-1.41.62.62 0 0 1 .7-.54c.34.05.57.37.52.72 0 .08.02.23.16.38.13.16.32.26.5.29.18.02.39-.02.6-.22.18-.17.37-.46.54-.94a4.76 4.76 0 0 0-.57-.1l-.01-.01a.63.63 0 0 1-.57-.69.62.62 0 0 1 .67-.58Z" clip-rule="evenodd"/></g><defs><clipPath id="a"><rect width="64" height="64" fill="#fff" rx="32"/></clipPath></defs></svg>
